X:376
T:Walter Bulwer's Polka No. 2
R:polka 32
C:Trad. ed. Barry Callaghan
S:'Hard Core English' page 53D
O:England
A:Norfolk
B:Hard Core English ISBN 978 085418 201 5
Z:PJHeadford 2008
M:4/4
L:1/8
Q:1/4=200
K:G
|:D2G2 G2FG|A2E2 E4|FGA2 A^GA2|B2G2 G2FE|
D2G2 G2FG|A2E2 E4|FGA2 D2EF|G2B2 G4:|
K:D
|:A2A2 B4|A2A2 F4|G2G2 EFG2|A2A2 FGA2|
A2A2 B4|A2A2 F4|G2G2 EGFE|D8:|]
W:Recorded from fiddler Walter Bulwer (Shipdham, Norfolk) by
W:Mervyn Plunkett 1959, Bill Leader 1959.

